Numix-Circle/48x48/apps/klines.svg

<svg xmlns="http://www.w3.org/2000/svg" viewBox="0 0 48 48"><defs><linearGradient id="linearGradient3958" y1="48" x2="0" y2="0.135" gradientUnits="userSpaceOnUse"><stop stop-color="#c9c9df" stop-opacity="1"/><stop offset="1" stop-color="#d5d5e7" stop-opacity="1"/></linearGradient></defs><g><path d="m 36.31 5 c 5.859 4.062 9.688 10.831 9.688 18.5 c 0 12.426 -10.07 22.5 -22.5 22.5 c -7.669 0 -14.438 -3.828 -18.5 -9.688 c 1.037 1.822 2.306 3.499 3.781 4.969 c 4.085 3.712 9.514 5.969 15.469 5.969 c 12.703 0 23 -10.298 23 -23 c 0 -5.954 -2.256 -11.384 -5.969 -15.469 c -1.469 -1.475 -3.147 -2.744 -4.969 -3.781 z m 4.969 3.781 c 3.854 4.113 6.219 9.637 6.219 15.719 c 0 12.703 -10.297 23 -23 23 c -6.081 0 -11.606 -2.364 -15.719 -6.219 c 4.16 4.144 9.883 6.719 16.219 6.719 c 12.703 0 23 -10.298 23 -23 c 0 -6.335 -2.575 -12.06 -6.719 -16.219 z" opacity="0.05"/><path d="m 41.28 8.781 c 3.712 4.085 5.969 9.514 5.969 15.469 c 0 12.703 -10.297 23 -23 23 c -5.954 0 -11.384 -2.256 -15.469 -5.969 c 4.113 3.854 9.637 6.219 15.719 6.219 c 12.703 0 23 -10.298 23 -23 c 0 -6.081 -2.364 -11.606 -6.219 -15.719 z" opacity="0.1"/><path d="m 31.25 2.375 c 8.615 3.154 14.75 11.417 14.75 21.13 c 0 12.426 -10.07 22.5 -22.5 22.5 c -9.708 0 -17.971 -6.135 -21.12 -14.75 a 23 23 0 0 0 44.875 -7 a 23 23 0 0 0 -16 -21.875 z" opacity="0.2"/></g><g><path d="m 24 1 c 12.703 0 23 10.297 23 23 c 0 12.703 -10.297 23 -23 23 -12.703 0 -23 -10.297 -23 -23 0 -12.703 10.297 -23 23 -23 z" fill-opacity="1" fill="url(#linearGradient3958)"/></g><g><path d="m 40.03 7.531 c 3.712 4.084 5.969 9.514 5.969 15.469 0 12.703 -10.297 23 -23 23 c -5.954 0 -11.384 -2.256 -15.469 -5.969 4.178 4.291 10.01 6.969 16.469 6.969 c 12.703 0 23 -10.298 23 -23 0 -6.462 -2.677 -12.291 -6.969 -16.469 z" opacity="0.1"/></g><g><g><path d="m 16 12 -4 4 4 4 4 -4 -4 -4 z m 4 4 4 4 4 -4 -4 -4 -4 4 z m 8 0 4 4 4 -4 -4 -4 -4 4 z m 4 4 -4 4 4 4 4 -4 -4 -4 z m 0 8 -4 4 4 4 4 -4 -4 -4 z m -4 4 -4 -4 -4 4 4 4 4 -4 z m -8 0 -4 -4 -4 4 4 4 4 -4 z m -4 -4 4 -4 -4 -4 -4 4 4 4 z m 4 -4 4 4 4 -4 -4 -4 -4 4 z" fill="#909090" fill-rule="evenodd" stroke="none" fill-opacity="1"/><path d="m 33 14 l -3 3 l 3 3 l 3 -3 l -3 -3 z m -4 4 l -3 3 l 3 3 l 3 -3 l -3 -3 z m -4 4 l -3 3 l 3 3 l 3 -3 l -3 -3 z m -4 4 l -3 3 l 3 3 l 3 -3 l -3 -3 z m -4 4 l -3 3 l 3 3 l 3 -3 l -3 -3 z" fill="#000" fill-rule="evenodd" stroke="none" fill-opacity="0.098"/><path d="m 32 13 l -3 3 l 3 3 l 3 -3 l -3 -3 z m -4 4 l -3 3 l 3 3 l 3 -3 l -3 -3 z m -4 4 l -3 3 l 3 3 l 3 -3 l -3 -3 z m -4 4 l -3 3 l 3 3 l 3 -3 l -3 -3 z m -4 4 l -3 3 l 3 3 l 3 -3 l -3 -3 z" fill="#f23a3a" fill-rule="evenodd" stroke="none" fill-opacity="1"/></g></g></svg>

<?xml version="1.0" encoding="UTF-8" standalone="no"?>
<svg
   xmlns:dc="http://purl.org/dc/elements/1.1/"
   xmlns:cc="http://creativecommons.org/ns#"
   xmlns:rdf="http://www.w3.org/1999/02/22-rdf-syntax-ns#"
   xmlns:svg="http://www.w3.org/2000/svg"
   xmlns="http://www.w3.org/2000/svg"
   xmlns:xlink="http://www.w3.org/1999/xlink"
   xmlns:sodipodi="http://sodipodi.sourceforge.net/DTD/sodipodi-0.dtd"
   xmlns:inkscape="http://www.inkscape.org/namespaces/inkscape"
   viewBox="0 0 48 48"
   id="svg2"
   version="1.1"
   inkscape:version="0.91 r13725"
   width="100%"
   height="100%"
   sodipodi:docname="klines.svg">
  <metadata
     id="metadata61">
    <rdf:RDF>
      <cc:Work
         rdf:about="">
        <dc:format>image/svg+xml</dc:format>
        <dc:type
           rdf:resource="http://purl.org/dc/dcmitype/StillImage" />
        <dc:title />
      </cc:Work>
    </rdf:RDF>
  </metadata>
  <sodipodi:namedview
     pagecolor="#ffffff"
     bordercolor="#666666"
     borderopacity="1"
     objecttolerance="10"
     gridtolerance="10"
     guidetolerance="10"
     inkscape:pageopacity="0"
     inkscape:pageshadow="2"
     inkscape:window-width="1366"
     inkscape:window-height="713"
     id="namedview59"
     showgrid="false"
     inkscape:zoom="22.627417"
     inkscape:cx="21.88652"
     inkscape:cy="20.959353"
     inkscape:window-x="0"
     inkscape:window-y="28"
     inkscape:window-maximized="1"
     inkscape:current-layer="svg2">
    <inkscape:grid
       type="xygrid"
       id="grid3040" />
  </sodipodi:namedview>
  <defs
     id="defs4">
    <linearGradient
       id="linearGradient3952">
      <stop
         style="stop-color:#c9c9df;stop-opacity:1;"
         offset="0"
         id="stop3954" />
      <stop
         style="stop-color:#d5d5e7;stop-opacity:1;"
         offset="1"
         id="stop3956" />
    </linearGradient>
    <linearGradient
       inkscape:collect="always"
       xlink:href="#linearGradient3952"
       id="linearGradient3958"
       x1="25"
       y1="48"
       x2="25"
       y2="0.1351461"
       gradientUnits="userSpaceOnUse" />
  </defs>
  <g
     id="g21">
    <path
       d="m 36.31 5 c 5.859 4.062 9.688 10.831 9.688 18.5 c 0 12.426 -10.07 22.5 -22.5 22.5 c -7.669 0 -14.438 -3.828 -18.5 -9.688 c 1.037 1.822 2.306 3.499 3.781 4.969 c 4.085 3.712 9.514 5.969 15.469 5.969 c 12.703 0 23 -10.298 23 -23 c 0 -5.954 -2.256 -11.384 -5.969 -15.469 c -1.469 -1.475 -3.147 -2.744 -4.969 -3.781 z m 4.969 3.781 c 3.854 4.113 6.219 9.637 6.219 15.719 c 0 12.703 -10.297 23 -23 23 c -6.081 0 -11.606 -2.364 -15.719 -6.219 c 4.16 4.144 9.883 6.719 16.219 6.719 c 12.703 0 23 -10.298 23 -23 c 0 -6.335 -2.575 -12.06 -6.719 -16.219 z"
       opacity="0.05"
       id="path23" />
    <path
       d="m 41.28 8.781 c 3.712 4.085 5.969 9.514 5.969 15.469 c 0 12.703 -10.297 23 -23 23 c -5.954 0 -11.384 -2.256 -15.469 -5.969 c 4.113 3.854 9.637 6.219 15.719 6.219 c 12.703 0 23 -10.298 23 -23 c 0 -6.081 -2.364 -11.606 -6.219 -15.719 z"
       opacity="0.1"
       id="path25" />
    <path
       d="m 31.25 2.375 c 8.615 3.154 14.75 11.417 14.75 21.13 c 0 12.426 -10.07 22.5 -22.5 22.5 c -9.708 0 -17.971 -6.135 -21.12 -14.75 a 23 23 0 0 0 44.875 -7 a 23 23 0 0 0 -16 -21.875 z"
       opacity="0.2"
       id="path27" />
  </g>
  <g
     id="g29">
    <path
       d="m 24 1 c 12.703 0 23 10.297 23 23 c 0 12.703 -10.297 23 -23 23 -12.703 0 -23 -10.297 -23 -23 0 -12.703 10.297 -23 23 -23 z"
       id="path31"
       style="fill:url(#linearGradient3958);fill-opacity:1.0"
       fill-opacity="1"
       fill="url(#linearGradient3764)" />
  </g>
  <g
     id="g33" />
  <g
     id="g55">
    <path
       d="m 40.03 7.531 c 3.712 4.084 5.969 9.514 5.969 15.469 0 12.703 -10.297 23 -23 23 c -5.954 0 -11.384 -2.256 -15.469 -5.969 4.178 4.291 10.01 6.969 16.469 6.969 c 12.703 0 23 -10.298 23 -23 0 -6.462 -2.677 -12.291 -6.969 -16.469 z"
       id="path57"
       opacity="0.1" />
  </g>
  <g
     id="g3351">
    <g
       id="g4178">
      <path
         inkscape:connector-curvature="0"
         id="rect3395"
         d="m 16,12 -4,4 4,4 4,-4 -4,-4 z m 4,4 4,4 4,-4 -4,-4 -4,4 z m 8,0 4,4 4,-4 -4,-4 -4,4 z m 4,4 -4,4 4,4 4,-4 -4,-4 z m 0,8 -4,4 4,4 4,-4 -4,-4 z m -4,4 -4,-4 -4,4 4,4 4,-4 z m -8,0 -4,-4 -4,4 4,4 4,-4 z m -4,-4 4,-4 -4,-4 -4,4 4,4 z m 4,-4 4,4 4,-4 -4,-4 -4,4 z"
         style="fill:#909090;fill-opacity:1;fill-rule:evenodd;stroke:none;stroke-width:1px;stroke-linecap:butt;stroke-linejoin:miter;stroke-opacity:1" />
      <path
         style="fill:#000000;fill-opacity:0.09803922;fill-rule:evenodd;stroke:none;stroke-width:1px;stroke-linecap:butt;stroke-linejoin:miter;stroke-opacity:1"
         d="M 33 14 L 30 17 L 33 20 L 36 17 L 33 14 z M 29 18 L 26 21 L 29 24 L 32 21 L 29 18 z M 25 22 L 22 25 L 25 28 L 28 25 L 25 22 z M 21 26 L 18 29 L 21 32 L 24 29 L 21 26 z M 17 30 L 14 33 L 17 36 L 20 33 L 17 30 z "
         id="path3360" />
      <path
         style="fill:#f23a3a;fill-opacity:1;fill-rule:evenodd;stroke:none;stroke-width:1px;stroke-linecap:butt;stroke-linejoin:miter;stroke-opacity:1"
         d="M 32 13 L 29 16 L 32 19 L 35 16 L 32 13 z M 28 17 L 25 20 L 28 23 L 31 20 L 28 17 z M 24 21 L 21 24 L 24 27 L 27 24 L 24 21 z M 20 25 L 17 28 L 20 31 L 23 28 L 20 25 z M 16 29 L 13 32 L 16 35 L 19 32 L 16 29 z "
         id="rect4235" />
    </g>
  </g>
</svg>
